images/button-about-icon.svg

<svg width="20" height="20" viewBox="0 0 20 20" fill="none" xmlns="http://www.w3.org/2000/svg">
<path d="M19.75 1.75C19.75 1.19772 19.3023 0.75 18.75 0.75H9.75C9.19772 0.75 8.75 1.19772 8.75 1.75C8.75 2.30228 9.19772 2.75 9.75 2.75H17.75V10.75C17.75 11.3023 18.1977 11.75 18.75 11.75C19.3023 11.75 19.75 11.3023 19.75 10.75V1.75ZM1.95711 19.9571L19.4571 2.45711L18.0429 1.04289L0.542893 18.5429L1.95711 19.9571Z" fill="white"/>
</svg>

<svg xmlns="http://www.w3.org/2000/svg" width="20" height="20" fill="none"><path fill="#fff" d="M19.75 1.75a1 1 0 0 0-1-1h-9a1 1 0 0 0 0 2h8v8a1 1 0 1 0 2 0v-9ZM1.957 19.957l17.5-17.5-1.414-1.414-17.5 17.5 1.414 1.414Z"/></svg>
